!!!Genre:	Sher
!!!Mode:	Minor
!!!Listening/dance:	dance
!!!One_Mode:	no
**kern
*I"P1
*clefG2
*k[b-e-]
*g:
*M2/4
*>A
=1
8gTL
8dJ
8b-L
8dJ
=2
8gL
8dJ
8b-L
8dJ
=3
16gLL
16aJ
8b-J
16aLL
16b-J
8ccJ
=4
4b-T
8aL
8gJ
=5
8b-L
8ccJ
4dd
=6
4dd
4dd
=7
4ff
4ee-
=8
2dd
=9
8cc
4dd
8cc
=10
2cc
=11
8b-
(8qdd/
4cc)
8b-
=12
(16ddLL
16ccJ)
8b-J
(16b-LL
16aJ)
8gJ
=13
4g
4gg
=14
4dd
4b-
=15:|!
2g
=16
4g
4r
=17!|:
*>B
8b-L
8ccJ
4dd
=18
8ccL
8ddJ
4cc
=19
8b-L
8ccJ
8b-L
8ccJ
=20
8b-L
8aJ
4g
=21
8gL
8a
8b-
8ccJ
=22
8b-L
8gJ
8aL
8f#XJ
=23
2g
=24
2gg
=25:|!
8b-L
16gL
16b-JJ
16a-XLL
16gJ
8fJ
=26
2g
=27
4g
4r
=28||
*>bM
*B-:
*>C
4dd
8ccL
8b-J
=29
4.cc
8g
=30
8b-L
8b-J
8aL
8gJ
=31
4.f
8f
=32
4b-
4cc
=33
8ddL
16ee-L
16ddJJ
8ccL
8b-J
=34
2ff
=35
(8qeen/
2ff)
*>eM
*g:
=36
8aa-XL
8gg
8ff
8ee-J
=37
4dd
8ccL
8b-J
=38
4b-
(8qdd/
4cc)
=39
8b-L
8aJ
4g
=40
4b-
(8qdd/
4cc)
=41
8b-L
16gL
16b-JJ
16a-XLL
16gJ
8fJ
=42
2g
=43
4gg
4r
==
*-
